!!!OTL: Deep River
!!!ARE: United States of America
!!!ONB: Negro Spiritual
!!!AMD: Pentatonic
**kern
*>[A,B,C,B]
*>A
=1-
*clefG2
*k[b-]
*M2/2
*MM112
{([2a/
8.a/L]
16g/Jk
4f/)
=2
4g/
2d/}
{4f/
=3
4.f/
8f/
4.ff\
8dd\
=4
4cc\
(4a/
8a/L
8g/J
4f/)}
=5
{([2a/
8.a/L]
16g/Jk
4f/)
=6
4g/
4d/}
{4.f/
8c/
=7
!! Segno
*>B
8.d/L
16f/Jk
4f/
8.f/L
16d/Jk
8.c/L
16d/Jk
=8
4f/
2f/}
{8.c/L
16c/Jk
=9
8.d/L
16f/Jk
4f/
8.f/L
16d/Jk
8.c/L
16d/Jk
=10
4f/
2d/}
{8.c/L
16c/Jk
=11
8.d/L
16f/Jk
4f/
8.f/L
16d/Jk
8.c/L
16d/Jk
=12
4f/
(8.f/L
16g/Jk
4a/)}
{8.c/L
16c/Jk
=13
8.d/L
16f/Jk
4f/
8.f/L
16d/Jk
8.c/L
16d/Jk
=14
4f/
2f/}
!! Fine
==||
*>C
8r
{8a/
=15
8.a/L
16a/Jk
8.a/L
16a/Jk
8.a/L
16f/Jk
4f/
=16
4a/
8.g/L
16g/Jk
4.f/}
{8f/
=17
4a/
8.g/L
16g/Jk
4f/
8.d/L
16d/Jk
=18
4f/
4f/
4d/
8.c/L}
{16c/Jk
!! Dal Segno al Fine
==
*-
